!!!SOCIAL_FUNCTION:	songs of the drum-presentation ceremony
!!!PDT:	1913
!!!OTL: No_61_Song_of_Painting_the_Faces.krn
!!!REG: Great_Lakes
!!!LANG: Non-Tone
!!!LING_GROUP: Algonquin
**kern	**kern
*staff2	*staff1
*clefF4	*clefF4
*k[b-]	*k[b-]
*M2/4	*M2/4
4r	8d\L
.	8d\J
=1	=1
4GG^/	4e\
4GG^/	8d\L
.	8d\J
=2	=2
4GG^/	(8.d\L
.	16A\Jk)
4GG^/	8d\L
.	8d\J
=3	=3
4GG^/	4e\
4GG^/	8d\L
.	8d\J
=4	=4
2r	4d\
.	8d\L
.	8e\J
=5||	=5||
*M3/4	*M3/4
2.r	4d\
.	8d\L
.	8c\J
.	8c\L
.	8A\J
=6||	=6||
*M2/4	*M2/4
2r	8A\L
.	8G\J
.	8G\L
.	8F\J
=7	=7
2r	4D\
.	4D\
=8	=8
2r	8F\L
.	8F\J
.	8F\L
.	8D\J
=9	=9
2r	12F\L
.	12D\
.	12D\J
.	8.D\L
.	16D\Jk
=10	=10
2r	[2D\
=11||	=11||
*M3/4	*M3/4
2.r	2D\]
.	8G\L
.	8G\J
=12	=12
2.r	4A\
.	8A\L
.	8G\J
.	8G\L
.	8F\J
=13||	=13||
*M2/4	*M2/4
2r	4D\
.	4D\
=14	=14
2r	8F\L
.	8F\J
.	8F\L
.	8D\J
=15	=15
2r	12F\L
.	12D\
.	12D\J
.	8.D\L
.	16D\Jk
=16	=16
2r	[2D\
=17	=17
2r	4D\]
.	4r
==	==
*-	*-
